X:583
T: D' Mensterlid (281a), S. 593f
N: T0471
O: Luxemburg
S: Singendes Volk, Esch-Alzette, 1937 posth.]
N: Reuland, hhh Hary Ernzen, 1910;
N: (281b)- Roth bei Vianden, fff Mergen, 10.2.1924
R: ???]
M: 3/4
L: 1/16
K: F
F4 | F4C4A4 | A4F4c3c | c6B2A4 | A4G4
F4 | F4C4A4 | A4F4c3c | c6B2A4 | A4G4
e3d | c3cc3FF3F | F4F4
e3d | c3cc3FF3F | F4F4
F3A | c3cc3cd3d | c4c4
A3A | B4B4d4 | c4z4
A3A | c4c4B4 | A4z4

